X: 10
T: Humours Of Kinvara, The
C: Pat Kelly
Z: JACKB
S: https://thesession.org/tunes/294#setting53571
R: reel
M: 4/4
L: 1/8
K: Edor
BE E2 BEdE|BE E2 BcdB|cA A2 cAeA|ceef e2dc|
BE E2 BEdE|BE E2 BcdB|cA A2 cAeA|ceef e2de||
f3e d2 BA|Affe d2de|f3e fgaf|ecAc e2de|
f3e dcBA|Affe dcde|f3e fgaf|ecAc e2dc||

